app/img/layers.svg

<svg xmlns="http://www.w3.org/2000/svg" preserveAspectRatio="xMidYMid" width="55" height="53"><path d="M45.597 31.79c-.062.04-.121.082-.191.108l-.071.041 9.664 5.453L27.5 53.005.001 37.392l9.664-5.453-9.664-5.487 9.664-5.454-9.664-5.486L27.5-.006l27.498 15.518-9.664 5.486 9.664 5.454-9.401 5.338zM4.045 37.397l23.454 13.317 23.455-13.317-7.639-4.312L27.5 42.064l-15.816-8.979-7.639 4.312zm46.91-21.88L27.5 2.28 4.045 15.517l23.456 13.317 15.811-8.977 7.643-4.34zm-7.64 6.627l-.321.182a.989.989 0 0 1-.938.691c-.072 0-.136-.026-.205-.041l-2.203 1.251a.972.972 0 0 1 .406.779.997.997 0 0 1-1.001.994.988.988 0 0 1-.978-.88l-10.06 5.712c.008.048.029.091.029.142a.998.998 0 0 1-1 .995.998.998 0 0 1-1.001-.995c0-.214.082-.402.198-.564l-10.338-5.87a.967.967 0 0 1 .132.467.998.998 0 0 1-1.001.994.997.997 0 0 1-1.001-.994c0-.533.424-.961.955-.986l-2.264-1.285a.995.995 0 0 1-.693.282.994.994 0 0 1-.892-.564l-7.095 4.004 1.36.772a.979.979 0 0 1 .622-.234c.552 0 1 .445 1 .994 0 .051-.022.095-.029.144l10.062 5.711a.99.99 0 0 1 .978-.882.998.998 0 0 1 1.001.995.974.974 0 0 1-.407.779l2.203 1.251c.068-.015.133-.042.206-.042.445 0 .809.293.939.692l5.522 3.135 4.594-2.608c-.018-.075-.046-.145-.046-.225a.997.997 0 0 1 1.695-.712l2.265-1.286a.992.992 0 0 1-.958-.985.998.998 0 0 1 1.001-.995.999.999 0 0 1 1.001.995.952.952 0 0 1-.135.469l6.394-3.63 3.948-2.242a.965.965 0 0 1-.199-.565.997.997 0 0 1 1.909-.406l1.985-1.127-7.64-4.312zm1.743 3.857a.997.997 0 0 1-1.001-.994c0-.55.448-.995 1.001-.995a.998.998 0 0 1 1.001.995.997.997 0 0 1-1.001.994zm-3.002 2.984a.998.998 0 0 1-1.001-.995.997.997 0 0 1 1.001-.994.998.998 0 0 1 1.001.994c0 .55-.449.995-1.001.995zm-3.003 2.984a.999.999 0 0 1-1.001-.995.999.999 0 0 1 1.001-.995.998.998 0 0 1 1.001.995.998.998 0 0 1-1.001.995zm-3.002-2.984a.998.998 0 0 1-1.001-.995.997.997 0 0 1 1.001-.994.997.997 0 0 1 1.001.994c0 .55-.448.995-1.001.995zm-3.003 2.984c-.552 0-1-.446-1-.995a.998.998 0 0 1 1-.995.998.998 0 0 1 1.001.995.998.998 0 0 1-1.001.995zm-3.002 2.983a.997.997 0 0 1-1.001-.994c0-.55.448-.995 1.001-.995a.998.998 0 0 1 1.001.995.997.997 0 0 1-1.001.994zm-3.002 2.984a.998.998 0 0 1-1.001-.995.997.997 0 0 1 1.001-.994c.552 0 1 .445 1 .994 0 .55-.448.995-1 .995zm-3.003-2.984a.997.997 0 0 1-1.001-.994c0-.55.448-.995 1.001-.995a.998.998 0 0 1 1.001.995.997.997 0 0 1-1.001.994zm-3.002-2.983a.998.998 0 0 1-1.001-.995.998.998 0 0 1 1.001-.995.999.999 0 0 1 1.001.995.999.999 0 0 1-1.001.995zm-3.003-2.984c-.552 0-1-.445-1-.995a.997.997 0 0 1 1-.994.997.997 0 0 1 1.001.994c0 .55-.448.995-1.001.995zm-3.002 2.984a.998.998 0 0 1-1.001-.995.998.998 0 0 1 1.001-.995.998.998 0 0 1 1.001.995.998.998 0 0 1-1.001.995zm-3.003-2.984c-.552 0-1-.445-1-.995a.997.997 0 0 1 1-.994.997.997 0 0 1 1.001.994c0 .55-.448.995-1.001.995zm-3.002-2.984a.997.997 0 0 1-1.001-.994c0-.55.448-.995 1.001-.995a.998.998 0 0 1 1.001.995.997.997 0 0 1-1.001.994z" fill-rule="evenodd"/></svg>

<svg xmlns="http://www.w3.org/2000/svg" xmlns:xlink="http://www.w3.org/1999/xlink" preserveAspectRatio="xMidYMid" width="55" height="53" viewBox="0 0 55 53">
  <defs>
    <style>
      .cls-1 {
        fill: #000;
        fill-rule: evenodd;
      }
    </style>
  </defs>
  <path d="M45.597,31.790 C45.535,31.830 45.476,31.872 45.406,31.898 L45.335,31.939 L54.999,37.392 L27.500,53.005 L0.001,37.392 L9.665,31.939 L0.001,26.452 L9.665,20.998 L0.001,15.512 L27.500,-0.006 L54.998,15.512 L45.334,20.998 L54.998,26.452 L45.597,31.790 ZM4.045,37.397 L27.499,50.714 L50.954,37.397 L43.315,33.085 L27.500,42.064 L11.684,33.085 L4.045,37.397 ZM50.955,15.517 L27.500,2.280 L4.045,15.517 L27.501,28.834 L43.312,19.857 L50.955,15.517 ZM43.315,22.144 L42.994,22.326 C42.863,22.724 42.500,23.017 42.056,23.017 C41.984,23.017 41.920,22.991 41.851,22.976 L39.648,24.227 C39.889,24.408 40.054,24.682 40.054,25.006 C40.054,25.555 39.606,26.000 39.053,26.000 C38.541,26.000 38.135,25.613 38.075,25.120 L28.015,30.832 C28.023,30.880 28.044,30.923 28.044,30.974 C28.044,31.523 27.596,31.969 27.044,31.969 C26.491,31.969 26.043,31.523 26.043,30.974 C26.043,30.760 26.125,30.572 26.241,30.410 L15.903,24.540 C15.980,24.681 16.035,24.835 16.035,25.007 C16.035,25.556 15.586,26.001 15.034,26.001 C14.481,26.001 14.033,25.556 14.033,25.007 C14.033,24.474 14.457,24.046 14.988,24.021 L12.724,22.736 C12.544,22.909 12.302,23.018 12.031,23.018 C11.636,23.018 11.301,22.785 11.139,22.454 L4.044,26.458 L5.404,27.230 C5.576,27.090 5.786,26.996 6.026,26.996 C6.578,26.996 7.026,27.441 7.026,27.990 C7.026,28.041 7.004,28.085 6.997,28.134 L17.059,33.845 C17.118,33.352 17.525,32.963 18.037,32.963 C18.590,32.963 19.038,33.409 19.038,33.958 C19.038,34.282 18.872,34.555 18.631,34.737 L20.834,35.988 C20.902,35.973 20.967,35.946 21.040,35.946 C21.485,35.946 21.849,36.239 21.979,36.638 L27.501,39.773 L32.095,37.165 C32.077,37.090 32.049,37.020 32.049,36.940 C32.049,36.391 32.497,35.946 33.049,35.946 C33.321,35.946 33.564,36.055 33.744,36.228 L36.009,34.942 C35.477,34.918 35.051,34.491 35.051,33.957 C35.051,33.408 35.499,32.962 36.052,32.962 C36.604,32.962 37.053,33.408 37.053,33.957 C37.053,34.130 36.997,34.285 36.918,34.426 L43.312,30.796 L47.260,28.554 C47.144,28.392 47.061,28.204 47.061,27.989 C47.061,27.440 47.509,26.995 48.061,26.995 C48.467,26.995 48.813,27.237 48.970,27.583 L50.955,26.456 L43.315,22.144 ZM45.058,26.001 C44.505,26.001 44.057,25.556 44.057,25.007 C44.057,24.457 44.505,24.012 45.058,24.012 C45.611,24.012 46.059,24.457 46.059,25.007 C46.059,25.556 45.611,26.001 45.058,26.001 ZM42.056,28.985 C41.503,28.985 41.055,28.540 41.055,27.990 C41.055,27.441 41.503,26.996 42.056,26.996 C42.608,26.996 43.057,27.441 43.057,27.990 C43.057,28.540 42.608,28.985 42.056,28.985 ZM39.053,31.969 C38.501,31.969 38.052,31.523 38.052,30.974 C38.052,30.425 38.501,29.979 39.053,29.979 C39.606,29.979 40.054,30.425 40.054,30.974 C40.054,31.523 39.606,31.969 39.053,31.969 ZM36.051,28.985 C35.498,28.985 35.050,28.540 35.050,27.990 C35.050,27.441 35.498,26.996 36.051,26.996 C36.604,26.996 37.052,27.441 37.052,27.990 C37.052,28.540 36.604,28.985 36.051,28.985 ZM33.048,31.969 C32.496,31.969 32.048,31.523 32.048,30.974 C32.048,30.425 32.496,29.979 33.048,29.979 C33.601,29.979 34.049,30.425 34.049,30.974 C34.049,31.523 33.601,31.969 33.048,31.969 ZM30.046,34.952 C29.493,34.952 29.045,34.507 29.045,33.958 C29.045,33.408 29.493,32.963 30.046,32.963 C30.599,32.963 31.047,33.408 31.047,33.958 C31.047,34.507 30.599,34.952 30.046,34.952 ZM27.044,37.936 C26.491,37.936 26.043,37.491 26.043,36.941 C26.043,36.392 26.491,35.947 27.044,35.947 C27.596,35.947 28.044,36.392 28.044,36.941 C28.044,37.491 27.596,37.936 27.044,37.936 ZM24.041,34.952 C23.488,34.952 23.040,34.507 23.040,33.958 C23.040,33.408 23.488,32.963 24.041,32.963 C24.594,32.963 25.042,33.408 25.042,33.958 C25.042,34.507 24.594,34.952 24.041,34.952 ZM21.039,31.969 C20.486,31.969 20.038,31.523 20.038,30.974 C20.038,30.425 20.486,29.979 21.039,29.979 C21.591,29.979 22.040,30.425 22.040,30.974 C22.040,31.523 21.591,31.969 21.039,31.969 ZM18.036,28.985 C17.484,28.985 17.036,28.540 17.036,27.990 C17.036,27.441 17.484,26.996 18.036,26.996 C18.589,26.996 19.037,27.441 19.037,27.990 C19.037,28.540 18.589,28.985 18.036,28.985 ZM15.034,31.969 C14.481,31.969 14.033,31.523 14.033,30.974 C14.033,30.425 14.481,29.979 15.034,29.979 C15.587,29.979 16.035,30.425 16.035,30.974 C16.035,31.523 15.587,31.969 15.034,31.969 ZM12.031,28.985 C11.479,28.985 11.031,28.540 11.031,27.990 C11.031,27.441 11.479,26.996 12.031,26.996 C12.584,26.996 13.032,27.441 13.032,27.990 C13.032,28.540 12.584,28.985 12.031,28.985 ZM9.029,26.001 C8.476,26.001 8.028,25.556 8.028,25.007 C8.028,24.457 8.476,24.012 9.029,24.012 C9.582,24.012 10.030,24.457 10.030,25.007 C10.030,25.556 9.582,26.001 9.029,26.001 Z" class="cls-1"/>
</svg>
